svg/emoji/look_left_fill.svg

<?xml version="1.0" encoding="UTF-8"?>
<svg width="24px" height="24px" viewBox="0 0 24 24" version="1.1" xmlns="http://www.w3.org/2000/svg" xmlns:xlink="http://www.w3.org/1999/xlink">
    <title>look_left_fill</title>
    <g id="Icon" stroke="none" stroke-width="1" fill="none" fill-rule="evenodd">
        <g id="Emoji" transform="translate(-336.000000, -48.000000)">
            <g id="look_left_fill" transform="translate(336.000000, 48.000000)">
                <path d="M24,0 L24,24 L0,24 L0,0 L24,0 Z M12.5935,23.2578 L12.5819,23.2595 L12.5109,23.295 L12.4919,23.2987 L12.4767,23.295 L12.4057,23.2595 C12.3958,23.2564 12.387,23.259 12.3821,23.2649 L12.378,23.2758 L12.3609,23.7031 L12.3659,23.7235 L12.3769,23.7357 L12.4805,23.8097 L12.4953,23.8136 L12.5071,23.8097 L12.6107,23.7357 L12.6233,23.7197 L12.6267,23.7031 L12.6096,23.2758 C12.6076,23.2657 12.601,23.2593 12.5935,23.2578 Z M12.8584,23.1453 L12.8445,23.1473 L12.6598,23.2397 L12.6499,23.2499 L12.6472,23.2611 L12.6651,23.6906 L12.6699,23.7034 L12.6784,23.7105 L12.8793,23.8032 C12.8914,23.8069 12.9022,23.803 12.9078,23.7952 L12.9118,23.7812 L12.8777,23.1665 C12.8753,23.1546 12.8674,23.147 12.8584,23.1453 Z M12.143,23.1473 C12.1332,23.1424 12.1222,23.1453 12.1156,23.1526 L12.1099,23.1665 L12.0758,23.7812 C12.0751,23.7927 12.0828,23.8019 12.0926,23.8046 L12.1083,23.8032 L12.3092,23.7105 L12.3186,23.7024 L12.3225,23.6906 L12.3404,23.2611 L12.3372,23.2485 L12.3278,23.2397 L12.143,23.1473 Z" id="MingCute" fill-rule="nonzero"></path>
                <path d="M22,12 C22,17.5228 17.5229,22 12,22 C7.26098,22 3.29187,18.7034 2.26075,14.2784 C2.27892,14.2944 2.2972,14.3105 2.31559,14.3266 C2.50214,14.4896 2.69699,14.6475 2.90031,14.8 C3.28381,15.0876 3.69556,15.324 4.13049,15.5125 C5.38382,16.0556 6.67977,16.1652 7.83723,16.0336 C7.99818,16.0153 8.11979,15.9959 8.19643,15.9806 C8.73799,15.8723 9.08921,15.3455 8.9809,14.8039 C8.87259,14.2623 8.34576,13.9111 7.8042,14.0194 C7.78084,14.0241 7.71445,14.0347 7.61141,14.0464 C6.77176,14.1418 5.80987,14.0605 4.9257,13.6774 C4.63146,13.5499 4.35572,13.3916 4.10032,13.2 C3.93702,13.0775 3.78078,12.9509 3.63143,12.8204 C3.06125,12.3223 2.61396,11.7913 2.27656,11.2647 C2.18687,11.1247 2.11504,11.002 2.05981,10.9004 C2.60729,5.89492 6.84881,2 12,2 C17.5229,2 22,6.47715 22,12 Z M9.0001,9.5 C9.0001,10.3284 8.32853,11 7.5001,11 C6.67168,11 6.0001,10.3284 6.0001,9.5 C6.0001,8.67157 6.67168,8 7.5001,8 C8.32853,8 9.0001,8.67157 9.0001,9.5 Z" id="形状" fill="#09244B"></path>
            </g>
        </g>
    </g>
</svg>

<svg xmlns="http://www.w3.org/2000/svg" width="24" height="24"><g fill="none" fill-rule="evenodd"><path d="M24 0v24H0V0h24ZM12.594 23.258l-.012.002-.071.035-.02.004-.014-.004-.071-.036c-.01-.003-.019 0-.024.006l-.004.01-.017.428.005.02.01.013.104.074.015.004.012-.004.104-.074.012-.016.004-.017-.017-.427c-.002-.01-.009-.017-.016-.018Zm.264-.113-.014.002-.184.093-.01.01-.003.011.018.43.005.012.008.008.201.092c.012.004.023 0 .029-.008l.004-.014-.034-.614c-.003-.012-.01-.02-.02-.022Zm-.715.002a.023.023 0 0 0-.027.006l-.006.014-.034.614c0 .012.007.02.017.024l.015-.002.201-.093.01-.008.003-.011.018-.43-.003-.012-.01-.01-.184-.092Z"/><path fill="#09244B" d="M22 12c0 5.523-4.477 10-10 10-4.739 0-8.708-3.297-9.74-7.722l.056.049c.186.163.381.32.584.473.384.288.796.524 1.23.712 1.254.544 2.55.653 3.707.522.161-.019.283-.038.36-.053a1 1 0 1 0-.393-1.962c-.023.005-.09.016-.193.027-.84.096-1.801.014-2.685-.369A4.058 4.058 0 0 1 4.1 13.2a8.093 8.093 0 0 1-.469-.38 7.323 7.323 0 0 1-1.354-1.555 5.956 5.956 0 0 1-.217-.365C2.607 5.895 6.849 2 12 2c5.523 0 10 4.477 10 10ZM9 9.5a1.5 1.5 0 1 1-3 0 1.5 1.5 0 0 1 3 0Z"/></g></svg>
